img/phone_icon.svg

<svg width="24" height="24" viewBox="0 0 24 24" fill="none" xmlns="http://www.w3.org/2000/svg">
<path d="M3.29981 15.8273C3.77189 15.5962 6.07564 14.4406 6.49107 14.2673C6.92539 14.1132 7.22752 14.0361 7.54853 14.4984C7.86954 14.9799 8.75705 16.0585 9.02142 16.3666C9.28578 16.6941 9.56903 16.7326 10.0411 16.4822C10.5132 16.2511 12.0238 15.731 13.7989 14.1132C15.1962 12.842 16.1215 11.2819 16.4047 10.8004C16.6691 10.3189 16.4425 10.0685 16.197 9.81814C15.9893 9.60628 15.7249 9.25959 15.4983 8.98995C15.2717 8.7203 15.1773 8.50844 15.0263 8.20027C14.8752 7.87285 14.9507 7.60321 15.064 7.37208C15.1773 7.14096 16.1215 4.79121 16.4992 3.82819C16.8768 2.9037 17.2734 3.01926 17.5566 3H18.463C18.784 3 19.275 3.11556 19.7093 3.59707C20.1247 4.07858 21.3333 5.23419 21.3333 7.58395C21.3333 9.9337 19.6526 12.2064 19.426 12.5146C19.1995 12.842 16.1215 17.6571 11.4385 19.7179C10.3244 20.2187 9.45573 20.5076 8.77594 20.7195C7.66183 21.0854 6.64214 21.0276 5.83016 20.9121C4.92377 20.7772 3.05433 19.7564 2.67667 18.6393C2.28012 17.5222 2.28012 16.5785 2.4123 16.3666C2.54449 16.1548 2.82774 16.0585 3.29981 15.8273Z" fill="#281464"/>
</svg>

<svg width="24" height="24" fill="none" xmlns="http://www.w3.org/2000/svg"><path d="M3.3 15.827c.472-.23 2.776-1.386 3.191-1.56.434-.154.737-.23 1.058.231.32.482 1.208 1.56 1.472 1.869.265.327.548.366 1.02.115.472-.23 1.983-.751 3.758-2.369 1.397-1.271 2.323-2.831 2.606-3.313.264-.481.037-.732-.208-.982-.208-.212-.472-.558-.699-.828-.226-.27-.32-.482-.472-.79-.15-.327-.075-.597.038-.828.113-.231 1.058-2.58 1.435-3.544.378-.924.774-.809 1.058-.828h.906c.321 0 .812.116 1.246.597.416.482 1.624 1.637 1.624 3.987s-1.68 4.622-1.907 4.93c-.226.328-3.304 5.143-7.987 7.204-1.115.5-1.983.79-2.663 1.002-1.114.365-2.134.308-2.946.192-.906-.135-2.776-1.156-3.153-2.273-.397-1.117-.397-2.06-.265-2.272.132-.212.416-.309.888-.54Z" fill="#281464"/></svg>
